lib/typescript/assets/images/icons/filter-alt.svg

<svg xmlns="http://www.w3.org/2000/svg" width="24" height="24" viewBox="0 0 24 24">
  <path fill="grey" d="M12,22 C6.4771525,22 2,17.5228475 2,12 C2,6.4771525 6.4771525,2 12,2 C17.5228475,2 22,6.4771525 22,12 C22,17.5228475 17.5228475,22 12,22 Z M12,21 C16.9705627,21 21,16.9705627 21,12 C21,7.02943725 16.9705627,3 12,3 C7.02943725,3 3,7.02943725 3,12 C3,16.9705627 7.02943725,21 12,21 Z M6.5,10 C6.22385763,10 6,9.77614237 6,9.5 C6,9.22385763 6.22385763,9 6.5,9 L17.5,9 C17.7761424,9 18,9.22385763 18,9.5 C18,9.77614237 17.7761424,10 17.5,10 L6.5,10 Z M8.5,13 C8.22385763,13 8,12.7761424 8,12.5 C8,12.2238576 8.22385763,12 8.5,12 L15.5,12 C15.7761424,12 16,12.2238576 16,12.5 C16,12.7761424 15.7761424,13 15.5,13 L8.5,13 Z M10.5,16 C10.2238576,16 10,15.7761424 10,15.5 C10,15.2238576 10.2238576,15 10.5,15 L13.5,15 C13.7761424,15 14,15.2238576 14,15.5 C14,15.7761424 13.7761424,16 13.5,16 L10.5,16 Z"/>
</svg>

<svg xmlns="http://www.w3.org/2000/svg" width="24" height="24"><path fill="gray" d="M12 22C6.477 22 2 17.523 2 12S6.477 2 12 2s10 4.477 10 10-4.477 10-10 10zm0-1a9 9 0 1 0 0-18 9 9 0 0 0 0 18zM6.5 10a.5.5 0 0 1 0-1h11a.5.5 0 1 1 0 1h-11zm2 3a.5.5 0 1 1 0-1h7a.5.5 0 1 1 0 1h-7zm2 3a.5.5 0 1 1 0-1h3a.5.5 0 1 1 0 1h-3z"/></svg>
